client/public/game_modes/bouncing_ball/frame15.svg

<svg xmlns="http://www.w3.org/2000/svg" width="437" height="483" fill="none"><path fill="#EDEDED" d="M239 225h20v20h-20v-20Zm20 20h20v20h-20v-20Zm0 20h20v20h-20v-20Zm-20 0h20v20h-20v-20Zm0-20h20v20h-20v-20Zm-20 0h20v20h-20v-20Zm0-20h20v20h-20v-20Zm0-20h20v20h-20v-20Z"/><path stroke="#EDEDED" stroke-width="5" d="M239 225h20v20m-20-20v20m0-20h-20m20 0v-20h-20v20m40 20h-20m20 0h20v20m-20-20v20m-20-20v20m0-20h-20m60 20h-20m20 0v20h-20m0-20v20m0-20h-20m20 20h-20v-20m0 0h-20v-20m0 0v-20"/><path fill="#949494" d="M199 405h20v20h-20v-20Zm60 0h20v20h-20v-20Zm-20 0h20v20h-20v-20Zm-20 0h20v20h-20v-20Zm-40-20h20v20h-20v-20Zm0 20h20v20h-20v-20Zm-20-20h20v20h-20v-20Zm0 20h20v20h-20v-20Zm-20-40h20v20h-20v-20Zm0 20h20v20h-20v-20Zm-20-40h20v20h-20v-20Zm0-20h20v20h-20v-20Zm0-80h20v20h-20v-20Zm0 60h20v20h-20v-20Zm0-20h20v20h-20v-20Zm0-20h20v20h-20v-20Z"/><path stroke="#949494" stroke-width="5" d="M199 405h20m-20 0v20m0-20v-20h-20m20 20h-20m40 0v20m0-20h20m-20 20h-20m20 0h20m-40 0h-20m80-20h20v20h-20m0-20v20m0-20h-20m20 20h-20m0-20v20m-60-40v20m0-20h-20m20 20v20m0-20h-20m20 20h-20v-20m0-20v20m0-20v-20h-20m20 20h-20m20 20h-20v-20m0-20v20m0-20v-20m0 20h-20v-20m0 0h20m-20 0v-20m20 20v-20m-20 0h20m-20 0v-20m20 20v-20m0-40v-20h-20v20m20 0h-20m20 0v20m-20-20v20m0 20h20m-20 0v-20m20 20v-20m-20 0h20"/><path fill="#D9D9D9" d="M139 205h20v20h-20v-20Zm40-20h20v20h-20v-20Zm0 20h20v20h-20v-20Zm20-20h20v20h-20v-20Zm40 0h20v20h-20v-20Zm20 0h20v20h-20v-20Zm0 20h20v20h-20v-20Zm20 0h20v20h-20v-20Zm0 20h20v20h-20v-20Zm20 60h20v20h-20v-20Zm0-20h20v20h-20v-20Zm0 40h20v20h-20v-20Zm0 40h20v20h-20v-20Zm0-100h20v20h-20v-20Zm0 80h20v20h-20v-20Zm-20-20h20v20h-20v-20Zm0-20h20v20h-20v-20Zm0 40h20v20h-20v-20Zm0 40h20v20h-20v-20Zm-20 20h20v20h-20v-20Zm20 0h20v20h-20v-20Zm-120-20h20v20h-20v-20Zm40 20h20v20h-20v-20Zm-40-60h20v20h-20v-20Zm-20 0h20v20h-20v-20Zm20-20h20v20h-20v-20Zm-20-20h20v20h-20v-20Zm0-20h20v20h-20v-20Zm20 0h20v20h-20v-20Zm-20-20h20v20h-20v-20Zm20 0h20v20h-20v-20Zm-20-20h20v20h-20v-20Zm20 60h20v20h-20v-20Zm0-60h20v20h-20v-20Zm-20 80h20v20h-20v-20Zm20 40h20v20h-20v-20Zm-20 0h20v20h-20v-20Zm40 0h20v20h-20v-20Zm0 20h20v20h-20v-20Zm20 0h20v20h-20v-20Zm20 20h20v20h-20v-20Zm20 0h20v20h-20v-20Zm40-40h20v20h-20v-20ZM179 225h20v20h-20v-20Zm0 40h20v20h-20v-20Zm0-20h20v20h-20v-20Zm0 40h20v20h-20v-20Zm0 40h20v20h-20v-20Zm0-20h20v20h-20v-20Zm20-80h20v20h-20v-20Zm0 20h20v20h-20v-20Zm0 40h20v20h-20v-20Zm0-20h20v20h-20v-20Zm0 40h20v20h-20v-20Zm0 40h20v20h-20v-20Zm0-20h20v20h-20v-20Zm20-60h20v20h-20v-20Zm0 40h20v20h-20v-20Zm0-20h20v20h-20v-20Zm0 40h20v20h-20v-20Zm0 40h20v20h-20v-20Zm0-20h20v20h-20v-20Zm20-60h20v20h-20v-20Zm0 40h20v20h-20v-20Zm0-20h20v20h-20v-20Zm0 60h20v20h-20v-20Zm0-20h20v20h-20v-20Zm20-60h20v20h-20v-20Zm0 20h20v20h-20v-20Zm0 40h20v20h-20v-20Zm0 20h20v20h-20v-20Zm0-40h20v20h-20v-20Zm-60-120h20v20h-20v-20Zm20-20h20v20h-20v-20Zm-60 0h20v20h-20v-20Zm0 20h20v20h-20v-20Zm80 0h20v20h-20v-20Zm20 20h20v20h-20v-20Zm20 20h20v20h-20v-20Zm0 20h20v20h-20v-20Z"/><path stroke="#D9D9D9" stroke-width="5" d="M159 205h-20v20m20-20v20m0-20h20m-20 0v-20h20m-20 40h-20m20 0v20m0-20h20m-40 0v20m40-60h20m-20 0v20m20-20v20m0-20h20m-20 20h-20m20 0v20m0-20h20m-40 0v20m20 0h-20m20 0v20m0-20h20m-40 0v20m40-60v20m0-20h20m-20 20v20m0-20h20m0-20h20m-20 0v20m20-20v20m0-20h20v20m-20 0h-20m20 0h20m-20 0v20m-20-20v20h20m20-20v20m0-20h20v20m-20 0h-20m20 0h20m-20 0v20m-20-20v20h20m20-20v20m0 0h-20m20 0h20v20m-20-20v20m-20-20v20m20 20h20m-20 0v20m0-20v-20m0 20h-20m40 0v20m0-20v-20m0 40h-20m20 0v20m-20-20v20m0-20h-20m20-40h20m-20 0h-20m40 60h-20m20 0v20m-20-20v20m0-20h-20m20 20h20m-20 0v20m0-20h-20m40 0v20h-20m0 0h-20m20 0v20m-20-80v20m0-20v-20m0 20h-20m20 20v20m0-20h-20m20-40h-20m20 0v-20m0 80v20m0-20h-20m20 20v20m0-20h-20m40 20h-20m20 0v20h-20m0-20h-20m20 0v20m-20-20v20m0-20h-20m20 0v-20m20 40h-20m0 0h-20m-80-40h20m-20 0v20h20m-20-20v-20m0 20h-20v-20m40 20v20m0-20v-20m0 20h20m-20 20h20m0 0h20m-20 0v20h20m-20-20v-20m20 20v20m0-20v-20m0 20h20m-20 20h20m-80-80h20m-20 0v20m0-20h-20m20 0v-20m20 20v20m0-20v-20m0 20h20m-20 20h-20m20 0h20m-40 0h-20m0-20v20m0-20v-20m20 0h20m-20 0v-20m0 20h-20m40 0v-20m0 20h20m-60-20h20m-20 0v20m0-20v-20m20 20v-20m0 20h20m-40-20h20m-20 0v-20m20 20h20m-20 0v-20m20 20v20m0-20v-20m0 20h20m-20 20h20m-60-40h20m0 0h20m0 0h20m0 100v20m0-20v-20m0 20h20m-20 20h20m0 0v-20m0 20h20m0 20v20m0-20v-20m-40-120v20m0-20h20m-20 20v20m0-20h20m-20 20v20m0-20h20m-20 20v20m0-20h20m-20 20h20m0-100v20m0 0v20m0 0v20m0-20h20v20m-20 0v20m0-20h20m-20 20v20m0-20h20m-20 20v20m0-20h20m-20 20h20m0-60v20m0-20h20m-20 20v20m0-20h20m-20 20v20m0-20h20m-20 20v20m0-20h20m-20 20h20m0-80v20m0 0v20m0 0v20m0 0v20"/></svg>

<svg width="437" height="483" viewBox="0 0 437 483" fill="none" xmlns="http://www.w3.org/2000/svg">
<path d="M239 225H259V245H239V225Z" fill="#EDEDED"/>
<path d="M259 245H279V265H259V245Z" fill="#EDEDED"/>
<path d="M259 265H279V285H259V265Z" fill="#EDEDED"/>
<path d="M239 265H259V285H239V265Z" fill="#EDEDED"/>
<path d="M239 245H259V265H239V245Z" fill="#EDEDED"/>
<path d="M219 245H239V265H219V245Z" fill="#EDEDED"/>
<path d="M219 225H239V245H219V225Z" fill="#EDEDED"/>
<path d="M219 205H239V225H219V205Z" fill="#EDEDED"/>
<path d="M239 225H259V245M239 225V245M239 225H219M239 225V205H219V225M259 245H239M259 245H279V265M259 245V265M239 245V265M239 245H219M279 265H259M279 265V285H259M259 265V285M259 265H239M259 285H239V265M239 265H219V245M219 245V225" stroke="#EDEDED" stroke-width="5"/>
<path d="M199 405H219V425H199V405Z" fill="#949494"/>
<path d="M259 405H279V425H259V405Z" fill="#949494"/>
<path d="M239 405H259V425H239V405Z" fill="#949494"/>
<path d="M219 405H239V425H219V405Z" fill="#949494"/>
<path d="M179 385H199V405H179V385Z" fill="#949494"/>
<path d="M179 405H199V425H179V405Z" fill="#949494"/>
<path d="M159 385H179V405H159V385Z" fill="#949494"/>
<path d="M159 405H179V425H159V405Z" fill="#949494"/>
<path d="M139 365H159V385H139V365Z" fill="#949494"/>
<path d="M139 385H159V405H139V385Z" fill="#949494"/>
<path d="M119 345H139V365H119V345Z" fill="#949494"/>
<path d="M119 325H139V345H119V325Z" fill="#949494"/>
<path d="M119 245H139V265H119V245Z" fill="#949494"/>
<path d="M119 305H139V325H119V305Z" fill="#949494"/>
<path d="M119 285H139V305H119V285Z" fill="#949494"/>
<path d="M119 265H139V285H119V265Z" fill="#949494"/>
<path d="M199 405H219M199 405V425M199 405V385H179M199 405H179M219 405V425M219 405H239M219 425H199M219 425H239M199 425H179M259 405H279V425H259M259 405V425M259 405H239M259 425H239M239 405V425M179 385V405M179 385H159M179 405V425M179 405H159M179 425H159V405M159 385V405M159 385V365H139M159 385H139M159 405H139V385M139 365V385M139 365V345M139 365H119V345M119 345H139M119 345V325M139 345V325M119 325H139M119 325V305M139 325V305M139 265V245H119V265M139 265H119M139 265V285M119 265V285M119 305H139M119 305V285M139 305V285M119 285H139" stroke="#949494" stroke-width="5"/>
<path d="M139 205H159V225H139V205Z" fill="#D9D9D9"/>
<path d="M179 185H199V205H179V185Z" fill="#D9D9D9"/>
<path d="M179 205H199V225H179V205Z" fill="#D9D9D9"/>
<path d="M199 185H219V205H199V185Z" fill="#D9D9D9"/>
<path d="M239 185H259V205H239V185Z" fill="#D9D9D9"/>
<path d="M259 185H279V205H259V185Z" fill="#D9D9D9"/>
<path d="M259 205H279V225H259V205Z" fill="#D9D9D9"/>
<path d="M279 205H299V225H279V205Z" fill="#D9D9D9"/>
<path d="M279 225H299V245H279V225Z" fill="#D9D9D9"/>
<path d="M299 285H319V305H299V285Z" fill="#D9D9D9"/>
<path d="M299 265H319V285H299V265Z" fill="#D9D9D9"/>
<path d="M299 305H319V325H299V305Z" fill="#D9D9D9"/>
<path d="M299 345H319V365H299V345Z" fill="#D9D9D9"/>
<path d="M299 245H319V265H299V245Z" fill="#D9D9D9"/>
<path d="M299 325H319V345H299V325Z" fill="#D9D9D9"/>
<path d="M279 305H299V325H279V305Z" fill="#D9D9D9"/>
<path d="M279 285H299V305H279V285Z" fill="#D9D9D9"/>
<path d="M279 325H299V345H279V325Z" fill="#D9D9D9"/>
<path d="M279 365H299V385H279V365Z" fill="#D9D9D9"/>
<path d="M259 385H279V405H259V385Z" fill="#D9D9D9"/>
<path d="M279 385H299V405H279V385Z" fill="#D9D9D9"/>
<path d="M159 365H179V385H159V365Z" fill="#D9D9D9"/>
<path d="M199 385H219V405H199V385Z" fill="#D9D9D9"/>
<path d="M159 325H179V345H159V325Z" fill="#D9D9D9"/>
<path d="M139 325H159V345H139V325Z" fill="#D9D9D9"/>
<path d="M159 305H179V325H159V305Z" fill="#D9D9D9"/>
<path d="M139 285H159V305H139V285Z" fill="#D9D9D9"/>
<path d="M139 265H159V285H139V265Z" fill="#D9D9D9"/>
<path d="M159 265H179V285H159V265Z" fill="#D9D9D9"/>
<path d="M139 245H159V265H139V245Z" fill="#D9D9D9"/>
<path d="M159 245H179V265H159V245Z" fill="#D9D9D9"/>
<path d="M139 225H159V245H139V225Z" fill="#D9D9D9"/>
<path d="M159 285H179V305H159V285Z" fill="#D9D9D9"/>
<path d="M159 225H179V245H159V225Z" fill="#D9D9D9"/>
<path d="M139 305H159V325H139V305Z" fill="#D9D9D9"/>
<path d="M159 345H179V365H159V345Z" fill="#D9D9D9"/>
<path d="M139 345H159V365H139V345Z" fill="#D9D9D9"/>
<path d="M179 345H199V365H179V345Z" fill="#D9D9D9"/>
<path d="M179 365H199V385H179V365Z" fill="#D9D9D9"/>
<path d="M199 365H219V385H199V365Z" fill="#D9D9D9"/>
<path d="M219 385H239V405H219V385Z" fill="#D9D9D9"/>
<path d="M239 385H259V405H239V385Z" fill="#D9D9D9"/>
<path d="M279 345H299V365H279V345Z" fill="#D9D9D9"/>
<path d="M179 225H199V245H179V225Z" fill="#D9D9D9"/>
<path d="M179 265H199V285H179V265Z" fill="#D9D9D9"/>
<path d="M179 245H199V265H179V245Z" fill="#D9D9D9"/>
<path d="M179 285H199V305H179V285Z" fill="#D9D9D9"/>
<path d="M179 325H199V345H179V325Z" fill="#D9D9D9"/>
<path d="M179 305H199V325H179V305Z" fill="#D9D9D9"/>
<path d="M199 225H219V245H199V225Z" fill="#D9D9D9"/>
<path d="M199 245H219V265H199V245Z" fill="#D9D9D9"/>
<path d="M199 285H219V305H199V285Z" fill="#D9D9D9"/>
<path d="M199 265H219V285H199V265Z" fill="#D9D9D9"/>
<path d="M199 305H219V325H199V305Z" fill="#D9D9D9"/>
<path d="M199 345H219V365H199V345Z" fill="#D9D9D9"/>
<path d="M199 325H219V345H199V325Z" fill="#D9D9D9"/>
<path d="M219 265H239V285H219V265Z" fill="#D9D9D9"/>
<path d="M219 305H239V325H219V305Z" fill="#D9D9D9"/>
<path d="M219 285H239V305H219V285Z" fill="#D9D9D9"/>
<path d="M219 325H239V345H219V325Z" fill="#D9D9D9"/>
<path d="M219 365H239V385H219V365Z" fill="#D9D9D9"/>
<path d="M219 345H239V365H219V345Z" fill="#D9D9D9"/>
<path d="M239 285H259V305H239V285Z" fill="#D9D9D9"/>
<path d="M239 325H259V345H239V325Z" fill="#D9D9D9"/>
<path d="M239 305H259V325H239V305Z" fill="#D9D9D9"/>
<path d="M239 365H259V385H239V365Z" fill="#D9D9D9"/>
<path d="M239 345H259V365H239V345Z" fill="#D9D9D9"/>
<path d="M259 285H279V305H259V285Z" fill="#D9D9D9"/>
<path d="M259 305H279V325H259V305Z" fill="#D9D9D9"/>
<path d="M259 345H279V365H259V345Z" fill="#D9D9D9"/>
<path d="M259 365H279V385H259V365Z" fill="#D9D9D9"/>
<path d="M259 325H279V345H259V325Z" fill="#D9D9D9"/>
<path d="M199 205H219V225H199V205Z" fill="#D9D9D9"/>
<path d="M219 185H239V205H219V185Z" fill="#D9D9D9"/>
<path d="M159 185H179V205H159V185Z" fill="#D9D9D9"/>
<path d="M159 205H179V225H159V205Z" fill="#D9D9D9"/>
<path d="M239 205H259V225H239V205Z" fill="#D9D9D9"/>
<path d="M259 225H279V245H259V225Z" fill="#D9D9D9"/>
<path d="M279 245H299V265H279V245Z" fill="#D9D9D9"/>
<path d="M279 265H299V285H279V265Z" fill="#D9D9D9"/>
<path d="M159 205H139V225M159 205V225M159 205H179M159 205V185H179M159 225H139M159 225V245M159 225H179M139 225V245M179 185H199M179 185V205M199 185V205M199 185H219M199 205H179M199 205V225M199 205H219M179 205V225M199 225H179M199 225V245M199 225H219M179 225V245M219 185V205M219 185H239M219 205V225M219 205H239M239 185H259M239 185V205M259 185V205M259 185H279V205M259 205H239M259 205H279M259 205V225M239 205V225H259M279 205V225M279 205H299V225M279 225H259M279 225H299M279 225V245M259 225V245H279M299 225V245M299 245H279M299 245H319V265M299 245V265M279 245V265M299 285H319M299 285V305M299 285V265M299 285H279M319 285V305M319 285V265M319 305H299M319 305V325M299 305V325M299 305H279M299 265H319M299 265H279M319 325H299M319 325V345M299 325V345M299 325H279M299 345H319M299 345V365M299 345H279M319 345V365H299M299 365H279M299 365V385M279 305V325M279 305V285M279 305H259M279 325V345M279 325H259M279 285H259M279 285V265M279 345V365M279 345H259M279 365V385M279 365H259M299 385H279M299 385V405H279M279 385H259M279 385V405M259 385V405M259 385H239M259 385V365M279 405H259M259 405H239M159 365H179M159 365V385H179M159 365V345M159 365H139V345M179 365V385M179 365V345M179 365H199M179 385H199M199 385H219M199 385V405H219M199 385V365M219 385V405M219 385V365M219 385H239M219 405H239M159 325H179M159 325V345M159 325H139M159 325V305M179 325V345M179 325V305M179 325H199M179 345H159M179 345H199M159 345H139M139 325V345M139 325V305M159 305H179M159 305V285M159 305H139M179 305V285M179 305H199M139 285H159M139 285V305M139 285V265M159 285V265M159 285H179M139 265H159M139 265V245M159 265H179M159 265V245M179 265V285M179 265V245M179 265H199M179 285H199M139 245H159M159 245H179M179 245H199M199 345V365M199 345V325M199 345H219M199 365H219M219 365V345M219 365H239M239 385V405M239 385V365M199 245V265M199 245H219M199 265V285M199 265H219M199 285V305M199 285H219M199 305V325M199 305H219M199 325H219M219 225V245M219 245V265M219 265V285M219 265H239V285M219 285V305M219 285H239M219 305V325M219 305H239M219 325V345M219 325H239M219 345H239M239 285V305M239 285H259M239 305V325M239 305H259M239 325V345M239 325H259M239 345V365M239 345H259M239 365H259M259 285V305M259 305V325M259 325V345M259 345V365" stroke="#D9D9D9" stroke-width="5"/>
</svg>
